X:341
T: Paddy's Return
N: O'Farrell's Pocket Companion v.4 (Sky ed. p.148)
N: "Irish"
M: C
L: 1/8
Q: 220
R: march
K: Am
E| A>BAG A>Bcd| e>dcA G2G2| AAA>G ABcd| eedc A2A :|
c/d/| e>f ed/c/ d>e dc/B/| cA G/A/c/E/ G2G2| A/G/A/B/ cc dd/f/ e>d|
c/B/A/G/ E/D/E/G/ A2A :|
